X:1
T:Lead Me to Some Soul Today
T:Lead Me to Some Soul Today
T:Wendell Phillips Loveless
T:Will H. Houghton, 1936
T:© 1936, renewed 1964, Hope Publishing Company
C:Wendell Phillips Loveless
Z:© 1936, renewed 1964, Hope Publishing Company
%%score ( 1 2 ) ( 3 4 )
L:1/8
Q:1/4=113
M:4/4
K:F
V:1 treble 
V:2 treble 
V:3 bass 
V:4 bass 
V:1
 [CF]2 [FA]2 [FA]3 [_EG] | [DF]2 [DB]2 [DB]3 [B,D] | [A,C]2 [CF]2 [FA]2 [Fc]2 | [EG]2 [FA]2 [EG]4 | %4
w: Lead me to some|soul to- day, O|teach me, Lord, just|what to say;|
 [CF]2 [FA]2 [FA]3 [_EG] | [DF]2 [DB]2 [DB]3 [^G,D] | [A,C]2 [CA]2 [B,G]3 [CA] | [A,F]6 z2 | %8
w: Friends of mine are|lost in sin, And|can- not find their|way.|
 [DF]2 [DF]2 (G F2) [_DG] | [CA]2 [CA]2 [CF]3 [CF] | [DG]2 [DG]2 (A G2) [DA] | G6 z2 | %12
w: Few there are * who|seem to care, And|few there are * who|pray;|
 [CF]2 [FA]2 [FA]3 [_EG] | [DF]2 [DB]2 [DB]3 [B,D] | C2 [FA]2 [EG]3 [EA] | [CF]6 z2 |] %16
w: Melt my heart, and|fill my life, Give|me one soul to-|day.|
V:2
 x8 | x8 | x8 | x8 | x8 | x8 | x8 | x8 | x4 _D3 x | x8 | x4 D3 x | (E2 D2 C2) x2 | x8 | x8 | %14
 (A,C) x6 | x8 |] %16
V:3
 [F,A,]2 [F,C]2 [F,C]3 [F,A,] | [B,,B,]2 [B,,F,]2 [B,,F,]3 [D,F,] | F,2 [F,A,]2 [F,C]2 [F,A,]2 | %3
w: ~ ~ ~ ~|~ ~ ~ ~|~ ~ ~ ~|
 [C,C]2 [C,C]2 (C2 B,2) | [F,A,]2 [F,C]2 [F,C]3 [F,A,] | [B,,B,]2 [B,,F,]2 [B,,F,]3 [=B,,F,] | %6
w: ~ ~ ~ *|~ ~ ~ ~|~ ~ ~ ~|
 [C,F,]2 [C,F,]2 [C,E,]3 [C,E,] | F,6 z2 | [B,,B,]2 [B,,B,]2 [B,,B,]3 [B,,F,] | %9
w: ~ ~ ~ ~|~|~ ~ ~ ~|
 F,2 F,2 [F,A,]3 [A,C] | [G,=B,]2 [G,B,]2 [G,B,]3 [G,B,] | [C,C]2 [D,=B,]2 [E,_B,]2 z2 | %12
w: ~ ~ ~ ~|~ ~ ~ ~|~ who pray;|
 [F,A,]2 [F,C]2 [F,C]3 [F,A,] | [B,,B,]2 [B,,F,]2 [B,,F,]3 [B,,F,] | (F,A,) [C,C]2 [C,B,]3 [C,C] | %15
w: |||
 [F,A,]6 z2 |] %16
w: |
V:4
 x8 | x8 | F,2 x6 | x4 C,4 | x8 | x8 | x8 | F,6 x2 | x8 | F,2 F,2 x4 | x8 | x8 | x8 | x8 | C,2 x6 | %15
 x8 |] %16

